X:1
T:Title
%%score { 1 | ( 2 3 ) }
L:1/8
M:3/2
K:C
V:1 treble nm="Grand Piano"
V:2 bass 
V:3 bass 
V:1
 z4 z4 [Ge]4 | [EGe]6 [^F_e]2 [EG=e]2 [Ec]2 | [DFd]4 [B,DB]6 [Fd]2 | [FAf]6 [Gf]2 [FAf]2 [Gf]2 | %4
[M:4/4] [CEc]8 |[M:2/4] [Ge]4 |[M:6/4] [EGe]6 [^F_e]2 [EG=e]2 [Ec]2 | %7
 [DFd]4 [B,DB]2- [B,DB]4 [Fd]2 | [FAf]6 [Gf]2 [FAf]2 [Gf]2 |[M:4/4] [Ece]8 |[M:2/4] [Ge]4 | %11
[M:6/4] e3 d d2- d4 B2 | c3 A [EG]2- [EG]4 [CE]2 | %13
[M:13/8] [CG]-[CG]-[CG]- [CG]3 [CE]2 [B,D]2 [DF]3 |[M:4/4] [CE]8 |] %15
V:2
 z4 z4 E4 | C,4 z2 _E2 z2 C2 | z4 z4 G,4 | G,,4 z2 F2 z2 B,2 |[M:4/4] C,4 C,,4 |[M:2/4] E4 | %6
[M:6/4] .C,6 ._E4 C2 | z6 z2 G,4 | .G,,6[K:treble] .F4[K:bass] F2 |[M:4/4] C,4 C,,4 | %10
[M:2/4] [C,C]4 |[M:6/4][K:treble] [G,CG]3 [G,B,F] [G,B,F]2- [G,B,F]4 [G,DF]2 | %12
 [A,CE]3 [F,CF] [C,C]2- [C,C]4 [C,G,]2 | %13
[M:13/8] [G,,E,]-[G,,E,]-[G,,E,]- [G,,E,]3 [G,,G,]2 [G,,G,]2 [G,,G,]3 |[M:4/4] [C,G,]8 |] %15
V:3
 x12 | z4 C4 C,4 | G,4 G,,4 z2 D2 | z4 G,4 G,,4 |[M:4/4] x8 |[M:2/4] x4 |[M:6/4] z4 C2- C2 C,4 | %7
 G,4 G,,2- G,,2 z2 D2 | z4[K:treble] G,2- G,2[K:bass] G,,4 |[M:4/4] x8 |[M:2/4] x4 | %11
[M:6/4][K:treble] x12 | x12 |[M:13/8] x13 |[M:4/4] x8 |] %15

